P2
# Synthetic low-contrast cropped fixture; public-domain scans are not vendored.
20 12
255
220 220 220 220 220 220 220 220 220 220 220 220 220 220 220 220 220 220 220 220
220 220 220 190 185 190 220 220 220 220 220 180 180 180 220 220 220 220 220 220
220 210 190 170 210 180 200 220 220 220 190 220 220 180 190 220 220 220 220 220
220 190 220 170 220 180 220 220 220 220 190 210 200 180 220 220 220 220 220 220
220 190 220 170 220 180 220 220 220 220 190 220 210 180 220 220 220 220 220 220
220 200 190 170 210 180 195 220 220 220 190 190 190 180 220 220 220 220 220 220
220 220 220 220 220 220 220 220 220 220 220 220 220 220 220 220 220 220 220 220
220 185 185 185 220 190 220 190 220 180 180 180 220 220 220 220 220 220 220 220
220 190 220 220 220 190 220 190 220 180 220 220 220 220 220 220 220 220 220 220
220 185 185 200 220 190 200 190 220 180 180 195 220 220 220 220 220 220 220 220
220 220 220 220 220 220 220 220 220 220 220 220 220 220 220 220 220 220 220 220
220 220 220 220 220 220 220 220 220 220 220 220 220 220 220 220 220 220 220 220
