P2
# Synthetic two-column and header/footer fixture.
20 12
255
255 255 255 255 100 255 255 255 255 255 255 255 255 100 255 255 255 255 255 255
255 255 255 255 255 255 255 255 255 255 255 255 255 255 255 255 255 255 255 255
255 40 40 40 255 40 40 255 255 255 255 40 40 40 255 40 40 255 255 255
255 40 255 40 255 40 255 255 255 255 255 40 255 40 255 40 255 255 255 255
255 40 40 40 255 40 40 255 255 255 255 40 40 40 255 40 40 255 255 255
255 255 255 255 255 255 255 255 255 255 255 255 255 255 255 255 255 255 255 255
255 40 40 255 40 40 40 255 255 255 255 40 40 255 40 40 40 255 255 255
255 40 255 255 40 255 40 255 255 255 255 40 255 255 40 255 40 255 255 255
255 40 40 255 40 40 40 255 255 255 255 40 40 255 40 40 40 255 255 255
255 255 255 255 255 255 255 255 255 255 255 255 255 255 255 255 255 255 255 255
255 255 255 255 255 255 255 255 255 255 255 255 255 255 255 255 255 255 255 255
255 255 255 255 255 255 255 255 100 100 100 100 255 255 255 255 255 255 255 255
